X: 36760
T: Sheldon MacNeil's
R: reel
M: 4/4
K: Gmixolydian
|:~B2 Ac BG^FG|G,B,DG Bdge|~f2 eg fdcA|FGAF cFAc|
~B2 Ac BG^FG|G,B,DG Bdge|fdcA FGAc|1 (3Bcd cA GBdc:|2 (3Bcd cA GABd||
|:gd (3ddd gdBG|G,B,DG Bdge|fc~c2 fgag|fdcA FGAF|
GG, (3G,G,G, B,DGB|dgba gfde|fdcA FGAc|1 (3Bcd cA G2 Bd:|2 (3Bcd cA GBdc||

